dist/img/sprites/search.svg

<svg width="26" height="25" viewBox="0 0 26 25" fill="none" xmlns="http://www.w3.org/2000/svg">
<path d="M0.237162 23.6664L8.1057 16.0264C6.63921 14.3313 5.75575 12.1501 5.75575 9.76883C5.75575 4.37331 10.2872 0 15.8779 0C21.4685 0 26 4.37331 26 9.76883C26 15.1644 21.4685 19.5377 15.8779 19.5377C13.3384 19.5377 11.0176 18.6327 9.24019 17.1408L1.38299 24.7714C1.06718 25.0762 0.553782 25.0762 0.237162 24.7714C-0.0794584 24.4666 -0.0786486 23.9727 0.237162 23.6664ZM15.8771 17.9879C20.5802 17.9879 24.3934 14.3078 24.3934 9.76883C24.3934 5.22984 20.581 1.54973 15.8771 1.54973C11.1739 1.54973 7.36152 5.22906 7.36152 9.76883C7.36152 14.3086 11.1739 17.9879 15.8771 17.9879Z" fill="#4B8125"/>
</svg>

<svg width="26" height="25" viewBox="0 0 26 25" fill="none" xmlns="http://www.w3.org/2000/svg"><path d="M.237 23.666l7.869-7.64c-1.467-1.695-2.35-3.876-2.35-6.257C5.756 4.373 10.287 0 15.878 0 21.468 0 26 4.373 26 9.769c0 5.395-4.532 9.769-10.122 9.769-2.54 0-4.86-.905-6.638-2.397l-7.857 7.63a.832.832 0 01-1.146 0 .762.762 0 010-1.105zm15.64-5.678c4.703 0 8.516-3.68 8.516-8.22 0-4.538-3.812-8.218-8.516-8.218-4.703 0-8.515 3.68-8.515 8.219 0 4.54 3.812 8.219 8.515 8.219z" fill="#4B8125"/></svg>
